X:1
T:Alexandra Vals
T:Alexandra Vals
T:H. C. Lumbye
T:Hendes kongelige Hooded Prinsesse Alexandra til Danmark
T:by IMSLP - Pubblico dominio
T:by IMSLP - Pubblico dominio
T:by IMSLP - Pubblico dominio
T:by IMSLP - Pubblico dominio
C:H. C. Lumbye
Z:by IMSLP - Pubblico dominio
%%score { ( 1 3 ) | ( 2 4 ) }
L:1/8
Q:1/4=120
M:3/4
K:D
V:1 treble nm="Piano" snm="Pno."
V:3 treble 
V:2 bass 
V:4 bass 
V:1
!f! [Adf]2 z [Adf] [Adf]2 | z2 !2!F!1!Adf | [Adfa]2 z [Adfa] [Adfa]2 | z2 !2!A!1!Bfa | %4
 [fad']2 z [fad'] [fad']2 | [e^gbd']2 z [egbd'] [egbd']2 | [eac']2"^Trombi." AA A2 | A2 A2 A2 |: %8
!p! A2 z2 A2 | z2 B3 c | d2 z2 d2 | z2 e3 f | a2 z2 g2- | g2 f3 e | d2 z2 B2- | B2 B3 _B | %16
 A2 z2 A2 | z2 B3 c | d2 z2 d2 | z2 e3 f |!<(! f2 z2 ^G2 | z2 f3 =f |1 e2 z2 A2!<)! | %23
 z2{c} (B3 A) :|2"^Trombi." e2 AA A2 | A2 A2 A2 |:!ff! !5!b6- | b.a.!3!g.!1!e.!4!c.!2!A | %28
 !5!d2 z2 !2!F2 | (!1!A2 d2 f2) | g2 z2 E2 | (A2 c2 f2) | f2 z2 !1!D2 | F!3!A!1!d!2!f!4!a^g | b6- | %35
 b.a.g.e.c.A | d2 z2 F2 | (A2 d2 f2) | (e4 d2) | (dcBAfe) | d2 z d d2 |1 z2 (^g3 a) :|2 d2 z2 z2 |: %43
{/d} (c2 ^B2 c2) | z2 e4 |{/d} (c2 ^B2 c2) | z2 e4 |{/d} (d2 c2 d2) | z2 b3 a | ^g z f z e z | %50
{/^g} f z e z d z |{/d} (c2 ^B2 c2) | z2 e4 |{/d} (c2 ^B2 c2) | z2 !>!^e4 | z2 !>!f4 | %56
!f! .a2 .^g2 .f2 | (e^dfeBc) |1 A2 z2 z2 :|2 A2 z2!f! B2 || =G2 z2 F2 | E2 z2 A2 | F2 z2 E2 | %63
 D2 z2 G2 | E2 z2 D2 | C2!f! z2 [CA]2 | D2 z2 z2 | z2 z2 z A |!mf! d2 z2 z D | F2 z2 z A | %70
 d2 z2 z e | f2 z2 z g | (fa)(df)(Ad) | (eg)(ce)(Ad) | (df)(Ad)(FA) | D2 z2 f2 | (f3 edc) | %77
 (f3 edc) | ^cAEAcd | e2 z2 e2 |!f! a3 ^gfe | fedcBA | e2 z E E2 | E2 z2 z2 | [Aa]2 z2 z2 | %85
 [Aa]2 z2 z2 | [Aa]2 z2 z2 | [^G^g]6- | [Gg]4 [Aa]2 | [Bb]2 z2 z2 | [cc']2 z2 z2 | [cc']2 z2 z2 | %92
 [dd']2 z2 z2 | [cc']6- | [cc']4 [Bb]2 | [Aa]2 z2 z2 | [Bb]2 z2 z2 | [Aa]2 z2 z2 | [^G^g]2 z2 z2 | %99
 (!1!A!2!^G!1!Ac!4!f!3!e) | (!2!c!1!^B!2!c!1!eba) | (!1!e!2!^d!1!ead'c') | e' z e' z e' z | %103
 e' z d' z c' z |:!ff! b6- | b z f z ^g z | a6- | a z c z d z | (3(f^gf) e z .e z | %109
 z2 (e/^g/) z (g/b/) z | (3(f^gf) e z .e z | z2 (e/a/) z (a/c'/) z | b6- | b z f z ^g z | a6- | %115
 a z c z d z | (3(f^gf) e z e z | z2 (^g/b/) z (b/e'/) z |1 a2 e' z e' z | e' z d' z c' z :|2 %120
 e2"^Trombi" AA A2 | A2 A2 A2 |:!p! .A2 .B.c.d.e | .f2 z2 A2 | f2 z2 (e2 | b6) | A2 .B.c.d.^d | %127
 e2 z2 A2 | e2 z2 (d2 | a6) | (agfe d) z | (AGFE D) z | (d'c'ba g) z | (dcBA G) z | bagf e z | %135
 (gfed c) z | [ca][ca] [ca]2 [ca]2 |1 d2 z2 z2 :|2 .d2 .e2 .d2 |: c6- | c2{/e} d2 c z | B6- | %142
 B2 .c2 .d2 | e6- | e2{/g} f3 e | d6- | d2 f2 g2 | a6- | a2{/=c'} b3 a | g2 z2 d'2- | %150
 d'2 z =c' e2 | =c'2 z (b d2) | b2 z (a f2) | g2 z g g2 |1 z2 ^A2 B2 :|2 g2 z2 z2 |] %156
[M:3/4]O"^Coda" [Adf]2 z [Adf] [Adf]2 | z2 !2!F!1!Adf | [Adfa]2 z [Adfa] [Adfa]2 | z2 !2!A!1!dfa | %160
 [fad']2 z [fad'] [fad']2 | [e^gbd']2 z [egbd'] [egbd']2 | [eac']2"^Trombi" AA A2 | A2 A2 A2 || %164
!p! A2 z2 A2 | z2 B3 c | d2 z2 d2 | z2 e3 f | a2 z2 g2- | g2 f3 e | d2 z2 c2- | c2 B3 _B | %172
 A2 z2 A2 | z2 B3 c | d2 z2 d2 | z2 e3 f | f2 z2 ^G2 | z2 f3 =f | e2 z2 A2 | z2{/c} B3 A | %180
!mf! A2 z2 A2 | z2 B3 c | d2 z2 d2 | z2 e3 f | a2 z2 g2- | g2 f3 e | d2 z2 c2- | c2 B3 _B | %188
 A2 z2 A2 | z2 B3 A | G2 z2 d2 | z2 c3 d |!f! [Adf]2 z [Adf] [Adf]2 | (gfedcB) | %194
{A} [Acea]2 z [Acea] [Acea]2 | (c'bagfe) | d2 [dfad'][dfad'] [dfad']2 | %197
!f! [dfad']2 [dfad']2 [dfad']2 | [dfad']2 [dfad']2 [dfad']2 | [dfad']2 [dfad']2 [dfad']2 | %200
 [dfad']2 [dfad']2 [dfad']2 | [dfad']2 [dfad']2 [dfad']2 | [dfad']2 [dfad']2 [dfad']2 | %203
 [dfad']2 [dfad']2 [dfad']2 | [dfad']2 z2 z2 | [fad'f']2 z2 z2 | D6 |] %207
V:2
 [D,F,A,D]2 z [D,F,A,D] [D,F,A,D]2 | [D,F,A,D]6 | [D,F,A,D]3 [D,F,A,D] [D,F,A,D]2 | [D,F,A,D]6 | %4
[K:treble] [DFA]2 z [DFA] [DFA]2 | [B,DE^G]2 z [B,DEG] [B,DEG]2 | [A,CEA]2 z2 z2 | z6 |: %8
[K:bass] D,2 [F,A,D]2 [F,A,D]2 | D,2 [G,B,D]2 [G,B,D]2 | D,2 [F,A,D]2 [F,A,D]2 | %11
 D,2 [F,A,D]2 [F,A,D]2 | A,2 [CEG]2 [CEG]2 | A,2 [CEG]2 [CEG]2 | A,2 [CEG]2 [CEG]2 | %15
 A,2 [CEG]2 [CEG]2 | D,2 [F,A,D]2 [F,A,D]2 | D,2 [F,A,D]2 [F,A,D]2 | D,2 [F,A,D]2 [F,A,D]2 | %19
 D,2 [F,A,D]2 [F,A,D]2 | B,,2 [D,E,^G,]2 [D,E,G,]2 | E,,2 [D,E,^G,]2 [D,E,G,]2 |1 %22
 A,,2 [C,E,A,]2 [C,E,A,]2 | A,,2 [C,=G,A,]2 [C,G,A,]2 :|2 [A,,C,E,A,]2 z2 z2 | z6 |: %26
 A,2 [CEG]2 [CEG]2 | A,2 [CEG]2 [CEG]2 | D,2 [F,A,D]2 [F,A,D]2 | D,2 [F,A,D]2 [F,A,D]2 | %30
 E,2 [A,C]2 [A,C]2 | E,2 [A,C]2 [A,C]2 | A,,2 [F,A,]2 [F,A,]2 | D,2 [F,A,D]2 [F,A,D]2 | %34
 A,2 [CEG]2 [CEG]2 | A,2 [CEG]2 [CEG]2 | D,2 [F,A,D]2 [F,A,D]2 | D,2 [F,A,D]2 [F,A,D]2 | %38
 B,,2 [D,E,^G,]2 [D,E,G,]2 | G,,2 [C,E,=G,]2 [C,E,G,]2 | [B,,D,]2 z [D,F,A,] [D,F,A,]2 |1 z6 :|2 %42
 [D,F,A,]2 z2 z2 |:"^dol." A,2 [CE]2 [CE]2 | A,2 [CE]2 [CE]2 |"^dol." A,2 [CE]2 [CE]2 | %46
 A,2 [CE]2 [CE]2 | A,2 [DE]2 [DE]2 | E,2 [^G,DE]2 [G,DE]2 | E,2 [^G,DE]2 [G,DE]2 | %50
 E,2 [^G,DE]2 [G,DE]2 | A,2 [CE]2 [CE]2 | ^G,2 [CE]2 [CE]2 | A,2 [CE]2 [CE]2 | ^G,2 [CD]2 [CD]2 | %55
 F,2 [A,C]2 [A,C]2 | ^D,2 [F,A,=C]2 [F,A,C]2 | [E,A,^C]4 [E,^G,D]2 |1 [A,C]2 !>![E,E]4 :|2 %59
 [A,C]2 z2 B,2 || =G,2 z2 F,2 | E,2 z2 A,2 | F,2 z2 E,2 | D,2 z2 G,2 | E,2 z2 D,2 | %65
 C,2 z2 [A,,E,G,]2 | D,2 [F,A,D]2 [F,A,D]2 | D,2 [F,A,D]2 [F,A,D]2 | D,2 [F,A,D]2 [F,A,D]2 | %69
 D,2 [F,A,D]2 [F,A,D]2 | D,2 [F,A,D]2 [F,A,D]2 | D,2 [F,A,D]2 [F,A,D]2 | A,2 [DF]2 [DF]2 | %73
 A,2 [CEG]2 [CEG]2 | D,2 [F,A,D]2 [F,A,D]2 | D,2 [F,A,D]2 [F,A,D]2 | A,2 [CE]2 [CE]2 | %77
 ^G,2 [DE]2 [DE]2 | A,2 C2 [CE]2 | A,2 [CE]2 [CE]2 | A,2 [CE]2 [CE]2 | A,2 [CE]2 [CE]2 | %82
 [E,^G,B,E]2 z E, E,2 | E,2 D,2 B,,2 |"^dolc." [A,,A,]2 [CE]2 [CE]2 | F,2 [A,CF]2 [A,CF]2 | %86
 D,2 [F,B,]2 [F,B,]2 | E,2 [^G,B,D]2 [G,B,D]2 | E,2 [^G,B,D]2 [G,B,D]2 | E,2 [^G,B,D]2 [G,B,D]2 | %90
 A,2 [CE]2 [CE]2 | =G,2 [A,CE]2 [A,CE]2 | F,2 [A,D]2 [A,D]2 | E,2 [A,C]2 [A,C]2 | %94
 ^E,2 [^G,C]2 [G,C]2 | F,2 [A,C]2 [A,C]2 | D,2 [F,B,]2 [F,B,]2 | F,2 [A,C]2 [A,C]2 | %98
 E,2 [^G,B,D]2 [G,B,D]2 | [A,C]2 z2 z2 | [A,CE]2 z2 z2 | [A,CE]2 z2 z2 | z6 | z6 |: %104
 F,2 [A,B,^D]2 [A,B,D]2 | E,2 [^G,B,=D]2 [G,B,D]2 | A,2 [CE]2 [CE]2 | A,2 [CE]2 [CE]2 | %108
 B,2 [DE]2 [DE]2 | E,2 [^G,DE]2 [G,DE]2 | A,2 [CE]2 [CE]2 | A,2 [CE]2 [CE]2 | %112
 F,2 [A,B,^D]2 [A,B,D]2 | E,2 [^G,B,=D]2 [G,B,D]2 | A,2 [CE]2 [CE]2 | A,2 [CE]2 [CE]2 | %116
 E,2 [^G,B,D]2 [G,B,D]2 | E,2 [^G,B,D]2 [G,B,D]2 |1 [A,C]2 z2 z2 | z6 :|2 %120
[K:treble] [A,CE]4 [A,DF]2 | [A,E=G]2 [A,DF]2 [A,CE]2 |:[K:bass] D,2 [F,A,D]2 [F,A,D]2 | %123
 D,2 [F,A,D]2 [F,A,D]2 | D,2 [^G,B,]2 [G,B,]2 | D,2 [^G,B,]2 [G,B,]2 | D,2 [=G,B,]2 [G,B,]2 | %127
 D,2 [=G,B,]2 [G,B,]2 | D,2 [F,A,D]2 [F,A,D]2 | F,2 [A,D]2 [A,D]2 | F,2 [A,D]2 [A,D]2 | %131
 F,2 [A,D]2 [A,D]2 | G,2 [B,E]2 [B,E]2 | G,2 [B,E]2 [B,E]2 | A,2 [CEG]2 [CEG]2 | %135
 A,2 [CEG]2 [CEG]2 | [A,EG]4 [A,EG]2 |1 [DF]2 z4 :|2 [DF]2 z2 z2 |: ^A,2 [EF]2 [EF]2 | %140
 ^A,2 [EF]2 [EF]2 | B,2 [DF]2 [DF]2 | B,2 [DF]2 [DF]2 |[K:treble] C2 [GA]2 [GA]2 | C2 [GA]2 [GA]2 | %145
[K:bass] F,,2 [A,,C,]2 [A,,C,]2 | F,,2 [A,,C,]2 [A,,C,]2 | =E,,2 [F,,A,,C,]2 [F,,A,,C,]2 | %148
 =E,,2 [F,,A,,C,]2 [F,,A,,C,]2 | D,,2 [F,,B,,]2 [F,,B,,]2 | =E,,2 [G,,C,]2 [G,,C,]2 | %151
 F,,2 [B,,D,]2 [B,,D,]2 | F,,2 [C,=E,]2 [C,E,]2 | [B,,D,]2 z [B,,D,F,] [B,,D,F,]2 |1 z6 :|2 %155
 [B,,D,F,]2 z2 z2 |][M:3/4] [D,F,A,D]2 z [D,F,A,D] [D,F,A,D]2 | [D,F,A,D]6 | %158
 [D,F,A,D]3 [D,F,A,D] [D,F,A,D]2 | [D,F,A,D]6 |[K:treble] [DFA]2 z [DFA] [DFA]2 | %161
 [B,DE^G]2 z [B,DEG] [B,DEG]2 | [A,CEA]2 z2 z2 | z6 ||[K:bass] D,2 [F,A,D]2 [F,A,D]2 | %165
 D,2 [G,B,D]2 [G,B,D]2 | D,2 [F,A,D]2 [F,A,D]2 | D,2 [F,A,D]2 [F,A,D]2 | A,2 [CEG]2 [CEG]2 | %169
 A,2 [CEG]2 [CEG]2 | A,2 [CEG]2 [CEG]2 | A,2 [CEG]2 [CEG]2 | D,2 [F,A,D]2 [F,A,D]2 | %173
 D,2 [G,B,D]2 [G,B,D]2 | D,2 [F,A,D]2 [F,A,D]2 | D,2 [F,A,D]2 [F,A,D]2 | %176
 B,,2 [D,E,^G,]2 [D,E,G,]2 | E,,2 [D,E,^G,]2 [D,E,G,]2 | A,,2 [C,E,A,]2 [C,E,A,]2 | %179
 A,,2 [C,=G,A,]2 [C,G,A,]2 | D,2 [F,A,D]2 [F,A,D]2 | D,2 [G,B,D]2 [G,B,D]2 | %182
 D,2 [F,A,D]2 [F,A,D]2 | D,2 [F,A,D]2 [F,A,D]2 | A,2 [CEG]2 [CEG]2 | A,2 [CEG]2 [CEG]2 | %186
 A,2 [CEG]2 [CEG]2 | A,2 [CEG]2 [CEG]2 | D,2 [F,A,D]2 [F,A,D]2 | D,2 [F,A,=C]2 [F,A,C]2 | %190
 D,2 [G,B,]2 [G,B,]2 | D,2 [G,_B,]2 [G,B,]2 | [D,F,A,]2 z [D,F,A,] [D,F,A,]2 | [D,F,A,]6 | %194
 [A,EG]2 z [A,EG] [A,EG]2 | [A,CEG]6 | [DF]2 z2 z2 | z2 [F,F]2 [G,G]2 | [A,A]6 | z2 [D,D]2 [E,E]2 | %200
 [F,F]6 | z2 [B,,B,]2 [C,C]2 | [D,D]2 [F,,F,]2 [G,,G,]2 | [A,,A,]2 [F,,F,]2 [E,,E,]2 | %204
 [D,,D,]2 z2 z2 | [D,F,A,D]2 z4 | [D,F,]6 |] %207
V:3
 x6 | x6 | x6 | x6 | x6 | x6 | x6 | x6 |: x6 | x6 | x6 | x6 | x6 | x6 | x6 | x6 | x6 | x6 | x6 | %19
 x6 | x6 | x6 |1 x6 | x6 :|2 x6 | x6 |: x6 | x6 | x6 | x6 | x6 | x6 | x6 | x6 | x6 | x6 | x6 | x6 | %38
 x6 | x6 | x6 |1 x6 :|2 x6 |: x6 | x6 | x6 | x6 | x6 | x6 | x6 | x6 | x6 | x6 | x6 | x6 | x6 | x6 | %57
 x6 |1 x6 :|2 x6 || x6 | x6 | x6 | x6 | x6 | x6 | x6 | x6 | x6 | x6 | x6 | x6 | x6 | x6 | x6 | x6 | %76
 x6 | x6 | x6 | x6 | x6 | x6 | x6 | x6 | x6 | x6 | x6 | x6 | x6 | x6 | x6 | x6 | x6 | x6 | x6 | %95
 x6 | x6 | x6 | x6 | A2 z2 z2 | x6 | x6 | x6 | x6 |: x6 | x6 | x6 | x6 | x6 | x6 | x6 | x6 | x6 | %113
 x6 | x6 | x6 | x6 | x6 |1 x6 | x6 :|2 x6 | x6 |: x6 | x6 | x6 | x6 | x6 | x6 | x6 | x6 | x6 | x6 | %132
 x6 | x6 | x6 | x6 | x6 |1 x6 :|2 x6 |: x6 | x6 | x6 | x6 | x6 | x6 | x6 | x6 | x6 | x6 | x6 | x6 | %151
 x6 | x6 | x6 |1 x6 :|2 x6 |][M:3/4] x6 | x6 | x6 | x6 | x6 | x6 | x6 | x6 || x6 | x6 | x6 | x6 | %168
 x6 | x6 | x6 | x6 | x6 | x6 | x6 | x6 | x6 | x6 | x6 | x6 | x6 | x6 | x6 | x6 | x6 | x6 | x6 | %187
 x6 | x6 | x6 | x6 | x6 | x6 | x6 | x6 | x6 | x6 | x6 | x6 | x6 | x6 | x6 | x6 | x6 | x6 | x6 | %206
 x6 |] %207
V:4
 x6 | x6 | x6 | x6 |[K:treble] x6 | x6 | x6 | x6 |:[K:bass] x6 | x6 | x6 | x6 | x6 | x6 | x6 | x6 | %16
 x6 | x6 | x6 | x6 | x6 | x6 |1 x6 | x6 :|2 x6 | x6 |: x6 | x6 | x6 | x6 | x6 | x6 | x6 | x6 | x6 | %35
 x6 | x6 | x6 | x6 | x6 | x6 |1 x6 :|2 x6 |: x6 | x6 | x6 | x6 | x6 | x6 | x6 | x6 | x6 | x6 | x6 | %54
 x6 | x6 | x6 | x6 |1 x6 :|2 x6 || x6 | x6 | x6 | x6 | x6 | x6 | x6 | x6 | x6 | x6 | x6 | x6 | x6 | %73
 x6 | x6 | x6 | x6 | x6 | x6 | x6 | x6 | x6 | x6 | x6 | x6 | x6 | x6 | x6 | x6 | x6 | x6 | x6 | %92
 x6 | x6 | x6 | x6 | x6 | x6 | x6 | x6 | x6 | x6 | x6 | x6 |: x6 | x6 | x6 | x6 | x6 | x6 | x6 | %111
 x6 | x6 | x6 | x6 | x6 | x6 | x6 |1 x6 | x6 :|2[K:treble] x6 | x6 |:[K:bass] x6 | x6 | x6 | x6 | %126
 x6 | x6 | x6 | x6 | x6 | x6 | x6 | x6 | x6 | x6 | x6 |1 x6 :|2 x6 |: x6 | x6 | x6 | x6 | %143
[K:treble] x6 | x6 |[K:bass] x6 | x6 | x6 | x6 | x6 | x6 | x6 | x6 | x6 |1 x6 :|2 x6 |][M:3/4] x6 | %157
 x6 | x6 | x6 |[K:treble] x6 | x6 | x6 | x6 ||[K:bass] x6 | x6 | x6 | x6 | x6 | x6 | x6 | x6 | x6 | %173
 x6 | x6 | x6 | x6 | x6 | x6 | x6 | x6 | x6 | x6 | x6 | x6 | x6 | x6 | x6 | x6 | x6 | x6 | x6 | %192
 x6 | x6 | x6 | x6 | x6 | x6 | x6 | x6 | x6 | x6 | x6 | x6 | x6 | x6 | [D,,A,,]6 |] %207

